build/img/icon-category/icon-category-5.svg

<svg width="28" height="26" viewBox="0 0 28 26" fill="none" xmlns="http://www.w3.org/2000/svg">
<path d="M10.0086 18.1339C10.9534 18.1339 11.7193 17.3677 11.7193 16.4226C11.7193 15.4775 10.9534 14.7113 10.0086 14.7113C9.06378 14.7113 8.29785 15.4775 8.29785 16.4226C8.29785 17.3677 9.06378 18.1339 10.0086 18.1339Z" fill="#2C8ECC"/>
<path d="M17.9925 18.1339C18.9373 18.1339 19.7032 17.3677 19.7032 16.4226C19.7032 15.4775 18.9373 14.7113 17.9925 14.7113C17.0477 14.7113 16.2817 15.4775 16.2817 16.4226C16.2817 17.3677 17.0477 18.1339 17.9925 18.1339Z" fill="#2C8ECC"/>
<path d="M26.546 14.7113C26.546 13.0148 25.3086 11.6161 23.689 11.3457C22.2954 7.32984 18.4895 4.44344 14.0005 4.44344C9.51154 4.44344 5.70571 7.32984 4.31202 11.3457C2.69252 11.6161 1.45508 13.0148 1.45508 14.7113C1.45508 16.4078 2.69252 17.8065 4.31202 18.0769C5.70571 22.0927 9.51154 24.9791 14.0005 24.9791C18.4895 24.9791 22.2954 22.0927 23.689 18.0769C25.3086 17.8065 26.546 16.4078 26.546 14.7113Z" stroke="#2C8ECC" stroke-width="2" stroke-miterlimit="10" stroke-linecap="square"/>
<path d="M14.0004 7.86607C13.7153 3.77832 15.9016 1.25813 19.7029 1.02083" stroke="#2C8ECC" stroke-width="2" stroke-miterlimit="10"/>
</svg>

<svg width="28" height="26" fill="none" xmlns="http://www.w3.org/2000/svg"><path d="M10.009 18.134a1.711 1.711 0 10-.001-3.422 1.711 1.711 0 000 3.422zm7.983 0a1.711 1.711 0 100-3.422 1.711 1.711 0 000 3.422z" fill="#2C8ECC"/><path d="M26.546 14.711a3.415 3.415 0 00-2.857-3.365c-1.394-4.016-5.2-6.903-9.688-6.903-4.49 0-8.295 2.887-9.689 6.903a3.415 3.415 0 00-2.857 3.365 3.415 3.415 0 002.857 3.366c1.394 4.016 5.2 6.902 9.689 6.902s8.294-2.886 9.688-6.902a3.415 3.415 0 002.857-3.366z" stroke="#2C8ECC" stroke-width="2" stroke-miterlimit="10" stroke-linecap="square"/><path d="M14 7.866c-.285-4.088 1.902-6.608 5.703-6.845" stroke="#2C8ECC" stroke-width="2" stroke-miterlimit="10"/></svg>
